assets/svg/1F55E.svg

<svg xmlns="http://www.w3.org/2000/svg" viewBox="0 0 64 64" enable-background="new 0 0 64 64"><circle fill="#e0e7ec" cx="31.867" cy="31.867" r="29.521"/><path fill="#d1d7da" d="m52.08 46.976c-16.305 0-29.521-13.217-29.521-29.519 0-5.422 1.486-10.486 4.04-14.852-13.725 2.538-24.13 14.545-24.13 29 0 16.306 13.217 29.523 29.521 29.523 10.883 0 20.365-5.907 25.485-14.671-1.75.325-3.548.514-5.393.514"/><path fill="#98a9b4" d="m31.869 0c-17.572 0-31.869 14.295-31.869 31.869 0 17.571 14.297 31.866 31.869 31.866s31.866-14.295 31.866-31.866c0-17.574-14.295-31.869-31.866-31.869m0 57.53c-14.15 0-25.665-11.513-25.665-25.665 0-14.15 11.513-25.665 25.665-25.665 14.15 0 25.663 11.513 25.663 25.665-.0001 14.15-11.513 25.665-25.663 25.665"/><path fill="#85939c" d="m33.738 52.741c0 1.434-.844 2.594-1.883 2.594l0 0c-1.039 0-1.883-1.16-1.883-2.594v-20.995c0-1.436.844-2.593 1.883-2.593l0 0c1.039 0 1.883 1.158 1.883 2.593v20.995"/><path fill="#788288" d="m47.76 28.99c1.432 0 2.593.844 2.593 1.881l0 0c0 1.039-1.163 1.883-2.595 1.883l-15.196.006c-1.428 0-2.591-.846-2.589-1.883l0 0c-.002-1.039 1.161-1.883 2.589-1.885l15.198-.002"/></svg>

<?xml version="1.0" encoding="UTF-8" standalone="no"?>
<!-- Generator: Adobe Illustrator 16.0.0, SVG Export Plug-In . SVG Version: 6.00 Build 0)  -->

<svg
   xmlns:dc="http://purl.org/dc/elements/1.1/"
   xmlns:cc="http://creativecommons.org/ns#"
   xmlns:rdf="http://www.w3.org/1999/02/22-rdf-syntax-ns#"
   xmlns:svg="http://www.w3.org/2000/svg"
   xmlns="http://www.w3.org/2000/svg"
   xmlns:sodipodi="http://sodipodi.sourceforge.net/DTD/sodipodi-0.dtd"
   xmlns:inkscape="http://www.inkscape.org/namespaces/inkscape"
   version="1.1"
   id="Layer_1"
   x="0px"
   y="0px"
   width="64px"
   height="64px"
   viewBox="0 0 64 64"
   enable-background="new 0 0 64 64"
   xml:space="preserve"
   inkscape:version="0.48.5 r10040"
   sodipodi:docname="1F55E.svg"
   inkscape:export-filename="D:\TESTINGEMOJI\SVGTEST\1F55E.png"
   inkscape:export-xdpi="90"
   inkscape:export-ydpi="90"><metadata
   id="metadata4545"><rdf:RDF><cc:Work
       rdf:about=""><dc:format>image/svg+xml</dc:format><dc:type
         rdf:resource="http://purl.org/dc/dcmitype/StillImage" /><dc:title></dc:title></cc:Work></rdf:RDF></metadata><defs
   id="defs4543" /><sodipodi:namedview
   pagecolor="#ffffff"
   bordercolor="#666666"
   borderopacity="1"
   objecttolerance="10"
   gridtolerance="10"
   guidetolerance="10"
   inkscape:pageopacity="0"
   inkscape:pageshadow="2"
   inkscape:window-width="640"
   inkscape:window-height="480"
   id="namedview4541"
   showgrid="false"
   inkscape:zoom="3.6875"
   inkscape:cx="32"
   inkscape:cy="32"
   inkscape:window-x="591"
   inkscape:window-y="362"
   inkscape:window-maximized="0"
   inkscape:current-layer="Layer_1" />
<g
   id="g4529">
	<circle
   fill="#E0E7EC"
   cx="31.867"
   cy="31.867"
   r="29.521"
   id="circle4531" />
	<path
   fill="#D1D7DA"
   d="M52.083,46.976c-16.305,0-29.521-13.217-29.521-29.519c0-5.422,1.486-10.486,4.036-14.852   C12.873,5.143,2.47,17.15,2.47,31.61c0,16.306,13.217,29.523,29.521,29.523c10.883,0,20.365-5.907,25.485-14.671   C55.726,46.787,53.928,46.976,52.083,46.976z"
   id="path4533" />
	<path
   fill="#98A9B4"
   d="M31.869,0C14.297,0,0,14.295,0,31.869C0,49.44,14.297,63.735,31.869,63.735S63.735,49.44,63.735,31.869   C63.735,14.295,49.44,0,31.869,0z M31.869,57.533c-14.151,0-25.665-11.513-25.665-25.665c0-14.151,11.513-25.665,25.665-25.665   c14.15,0,25.663,11.513,25.663,25.665C57.531,46.021,46.019,57.533,31.869,57.533z"
   id="path4535" />
	<path
   fill="#85939C"
   d="M33.738,52.741c0,1.434-0.844,2.594-1.883,2.594l0,0c-1.039,0-1.883-1.16-1.883-2.594V31.746   c0-1.436,0.844-2.593,1.883-2.593l0,0c1.039,0,1.883,1.158,1.883,2.593V52.741z"
   id="path4537" />
	<path
   fill="#788288"
   d="M47.76,28.99c1.432,0,2.593,0.844,2.593,1.881l0,0c0,1.039-1.163,1.883-2.595,1.883L32.562,32.76   c-1.428,0-2.591-0.846-2.589-1.883l0,0c-0.002-1.039,1.161-1.883,2.589-1.885L47.76,28.99z"
   id="path4539" />
</g>
</svg>
